X: 8
T: Jimmy In The Swamp
M: 4/4
L: 1/8
Q: 240
R: Reel
K: G
"G"DEGA BAGA| Beed ef g2| DEGA BAGA| BGAG EFGE|
DEGA BAGA| Beed efga| bgag efge| dBAF G4 ::
"Em"e4 B4 | efed B2 gf| e2 ED EFGA| BcBA GA B2|
e4 B4 | efed B2 gf| e2 ED EFGA| BcBA GA G2 :|
